X:564
T:Reel 564
M:4/4
K:Amaj
L:1/8
AA, (3A,A,A, EA,EA,|A,AAG AcBG|AA, (3A,A,A, FEFG|AFEC B,CA,C|A,A, (3A,A,A, EFEC|A,CEG  (3FGA BG|AcBG AFEC|DCB,C DEFA| (3AAA AE FAEA| (3CB,A, EA, CB,B,C| (3CB,A, EA, FA,EA,|DB,CB, A,G,FE| (3AAA, EA, FA,EA,| (3CB,A, EA, G,B,B,B,| (3CB,A, EA, FA,EA,| (3DEB, EA, G,A,F,G,|
